Obsidian-SemiLight/actions/24s/snap-nodes-midpoint.svg

<svg viewBox="0 0 24 24" xmlns="http://www.w3.org/2000/svg"><path d="m4 12v1h7v-1zm9 0v1h7v-1z" fill="#4d4d4d"/><path d="m12 9-3 6h6zm0 2.236328 1.382812 2.763672h-2.765624z" fill="#3daee9"/></svg>

<svg xmlns="http://www.w3.org/2000/svg" viewBox="0 0 24 24">
  <defs id="defs3051">
    <style type="text/css" id="current-color-scheme">
      .ColorScheme-Text {
        color:#4d4d4d;
      }
      .ColorScheme-Highlight {
        color:#3daee9;
      }
      </style>
  </defs>
 <path 
     style="fill:currentColor;fill-opacity:1;stroke:none" 
     d="M 4 12 L 4 13 L 11 13 L 11 12 L 4 12 z M 13 12 L 13 13 L 20 13 L 20 12 L 13 12 z "
     class="ColorScheme-Text"
     />
 <path 
     style="fill:currentColor;fill-opacity:1;stroke:none" 
     d="M 12 9 L 9 15 L 15 15 L 12 9 z M 12 11.236328 L 13.382812 14 L 10.617188 14 L 12 11.236328 z "
     class="ColorScheme-Highlight"
     />
</svg>
